src/img/projects/javascript.svg

<?xml version="1.0" encoding="UTF-8"?>
<svg width="90px" height="90px" viewBox="0 0 90 90" version="1.1" xmlns="http://www.w3.org/2000/svg" xmlns:xlink="http://www.w3.org/1999/xlink">
    <!-- Generator: Sketch 41.2 (35397) - http://www.bohemiancoding.com/sketch -->
    <title>community/card/logo/javascript</title>
    <desc>Created with Sketch.</desc>
    <defs></defs>
    <g id="Symbols" stroke="none" stroke-width="1" fill="none" fill-rule="evenodd">
        <g id="community/card/logo/javascript" fill="#FFC168">
            <path d="M72.7684664,51.795861 C72.1490859,47.9347877 69.6313444,44.693095 62.1746467,41.6685876 C59.5845101,40.47809 56.696749,39.6254364 55.8360514,37.6627241 C55.5303831,36.5204899 55.4901636,35.8769777 55.6832173,35.1852021 C56.2382466,32.9409533 58.9168661,32.2411338 61.0404564,32.884646 C62.4079199,33.3431484 63.7029882,34.3968997 64.4832467,36.0780753 C68.1351785,33.7131679 68.1271346,33.7292557 70.6770517,32.1043874 C69.743959,30.656485 69.2452371,29.988841 68.6339005,29.3694605 C66.4379151,26.9160702 63.4455833,25.6531775 58.6594613,25.7497044 C57.8309393,25.8542751 56.9943734,25.9668897 56.1658515,26.0714605 C53.7768124,26.6747532 51.5003879,27.929602 50.1651001,29.6107776 C46.1592366,34.1555826 47.3014708,42.1110023 52.1760758,45.3848706 C56.9782856,48.988539 64.0327882,49.809017 64.9337053,53.1794122 C65.8104907,57.3059343 61.901154,58.6412221 58.0159491,58.1666318 C55.1523197,57.571383 53.559627,56.1154367 51.8382319,53.4689927 C48.6689342,55.3030025 48.6689342,55.3030025 45.4111537,57.1772318 C46.1833683,58.8664514 46.9958025,59.6306221 48.2908708,61.0946124 C54.4203246,67.3125491 69.7600468,67.0068808 72.5110615,57.5955148 C72.6236762,57.2737586 73.3637152,55.1179928 72.7684664,51.795861 Z M41.0754902,26.2484263 L33.16029,26.2484263 C33.16029,33.0857435 33.1281144,39.8747973 33.1281144,46.7121145 C33.1281144,51.0638658 33.3533437,55.0536415 32.6454803,56.2763147 C31.4871583,58.6814416 28.4867826,58.3838172 27.1193192,57.9172709 C25.727724,57.2335391 25.0198606,56.2602269 24.1993825,54.8847196 C23.9741533,54.4905683 23.8052313,54.1849001 23.748924,54.1607683 C21.601202,55.4719245 19.4615239,56.7911245 17.3138019,58.1022806 C18.383641,60.298266 19.9602459,62.2046709 21.9792654,63.4434319 C24.9957289,65.25331 29.0498558,65.8083393 33.2889925,64.8350271 C36.0480511,64.0306368 38.4290462,62.365549 39.6758511,59.8317197 C41.4776853,56.5095879 41.091578,52.4876366 41.0754902,48.0393585 C41.1157097,40.7837583 41.0754902,33.5281582 41.0754902,26.2484263 Z" id="javascript"></path>
        </g>
    </g>
</svg>

<svg width="90" height="90" viewBox="0 0 90 90" xmlns="http://www.w3.org/2000/svg"><title>community/card/logo/javascript</title><path d="M72.768 51.796c-.619-3.861-3.137-7.103-10.593-10.127-2.59-1.19-5.478-2.044-6.339-4.006-.306-1.143-.346-1.786-.153-2.478.555-2.244 3.234-2.944 5.357-2.3 1.368.458 2.663 1.512 3.443 3.193 3.652-2.365 3.644-2.349 6.194-3.974-.933-1.448-1.432-2.115-2.043-2.735-2.196-2.453-5.188-3.716-9.975-3.62-.828.105-1.665.218-2.493.322-2.39.604-4.666 1.859-6 3.54-4.007 4.545-2.865 12.5 2.01 15.774 4.802 3.604 11.857 4.424 12.758 7.794.876 4.127-3.033 5.462-6.918 4.988-2.864-.596-4.456-2.052-6.178-4.698-3.17 1.834-3.17 1.834-6.427 3.708.772 1.69 1.585 2.454 2.88 3.918 6.13 6.218 21.469 5.912 24.22-3.5.113-.321.853-2.477.257-5.8zM41.075 26.248H33.16c0 6.838-.032 13.627-.032 20.464 0 4.352.225 8.342-.483 9.564-1.158 2.405-4.158 2.108-5.526 1.641-1.391-.683-2.1-1.657-2.92-3.032-.225-.394-.394-.7-.45-.724-2.148 1.31-4.287 2.63-6.435 3.941 1.07 2.196 2.646 4.103 4.665 5.341 3.017 1.81 7.07 2.365 11.31 1.392 2.76-.804 5.14-2.47 6.387-5.003 1.802-3.322 1.416-7.344 1.4-11.793.04-7.255 0-14.51 0-21.79z" fill="#FFC168" fill-rule="evenodd"/></svg>
